proprietary/assets/icons/op-kantoor/diploma-certificaat.svg

<svg enable-background="new 0 0 64 64" viewBox="0 0 64 64" xmlns="http://www.w3.org/2000/svg"><path d="m0 0h64v64h-64z" fill="none"/><path d="m51.43 20.456-14.82-14.849c-.375-.375-.876-.607-1.406-.607h-21.172c-1.104 0-2.032.938-2.032 2.042v46c0 1.104.928 1.958 2.032 1.958h18.968v-5h-16v-40h16.741l.916-3.114c.108-.341.343-.21.343-.21v14.366c0 .552.48.958 1.032.958h14.367s.106.271-.235.38l-3.164.954v26.666h-4v5h7.032c1.1 0 1.968-.858 1.968-1.958v-31.171c0-.531-.195-1.04-.57-1.415z"/><path d="m38.032 41.042c-2.761 0-5.016 2.239-5.016 5 0 1.63.984 3.065 1.984 3.977v8.459c0 .501.622.752.977.398l1.65-1.642c.22-.22.58-.22.8 0l1.628 1.642c.353.354.945.103.945-.398v-8.459c1-.913 2.016-2.347 2.016-3.977 0-2.761-2.222-5-4.984-5zm0 7c-1.103 0-2-.897-2-2s.897-2 2-2 2 .897 2 2-.897 2-2 2z"/><path d="m21 26h22v3h-22z"/><path d="m21 32h22v3h-22z"/><path d="m22.307 41.308c-.608 1.281-1.505 2.917-1.126 4.374.073.281.314.407.578.44.565.072 1.5-.598 1.982-1.221-.002.07-.003.129.001.154.045.297.185.694.43.893.212.172.478.235.727.094.368-.209.607-.549.833-.905.029.364.166.678.529.855.772.375 1.212-.293 1.619-.889.147.203.411.357.669.267.752-.261.491-.859 1.02-.091.435.632 1.476.033 1.036-.606-.314-.456-.236-1.012-.837-1.157-.4-.096-.721.154-1.033.389-.01-.044-.029-.085-.038-.129-.089-.346-.567-.588-.882-.359-.523.382-.61.739-.89 1.27-.241.455.113-.391.149-.656.031-.23.068-.454.08-.687.026-.482-.521-.71-.903-.518-.574.289-.871.854-1.197 1.36.101-.447.201-.937-.003-1.207-.119-.157-.298-.325-.518-.297-.87.11-1.569 1.474-2.232 2.015.085-.953.692-2.051 1.04-2.783.332-.694-.702-1.303-1.034-.606z"/></svg>

<?xml version="1.0" encoding="utf-8"?>
<!-- Generator: Adobe Illustrator 25.2.0, SVG Export Plug-In . SVG Version: 6.00 Build 0)  -->
<svg version="1.1" xmlns="http://www.w3.org/2000/svg" xmlns:xlink="http://www.w3.org/1999/xlink" x="0px" y="0px"
	 viewBox="0 0 64 64" style="enable-background:new 0 0 64 64;" xml:space="preserve">
<style type="text/css">
	.st0{fill:none;}
	.st1{fill:#B3B3B3;}
</style>
<g id="Box">
	<rect class="st0" width="64" height="64"/>
</g>
<g id="Icon">
	<g>
		<path d="M51.43,20.456L36.61,5.607C36.235,5.232,35.734,5,35.204,5H14.032C12.928,5,12,5.938,12,7.042v46
			C12,54.146,12.928,55,14.032,55H33v-5H17V10h16.741l0.916-3.114C34.765,6.545,35,6.676,35,6.676v14.366
			C35,21.594,35.48,22,36.032,22h14.367c0,0,0.106,0.271-0.235,0.38L47,23.334V50h-4v5h7.032c1.1,0,1.968-0.858,1.968-1.958V21.871
			C52,21.34,51.805,20.831,51.43,20.456z"/>
		<path d="M38.032,41.042c-2.761,0-5.016,2.239-5.016,5c0,1.63,0.984,3.065,1.984,3.977v8.459c0,0.501,0.622,0.752,0.977,0.398
			l1.65-1.642c0.22-0.22,0.58-0.22,0.8,0l1.628,1.642C40.408,59.23,41,58.979,41,58.478v-8.459c1-0.913,2.016-2.347,2.016-3.977
			C43.016,43.281,40.794,41.042,38.032,41.042z M38.032,48.042c-1.103,0-2-0.897-2-2s0.897-2,2-2s2,0.897,2,2
			S39.135,48.042,38.032,48.042z"/>
		<rect x="21" y="26" width="22" height="3"/>
		<rect x="21" y="32" width="22" height="3"/>
		<path d="M22.307,41.308c-0.608,1.281-1.505,2.917-1.126,4.374c0.073,0.281,0.314,0.407,0.578,0.44
			c0.565,0.072,1.5-0.598,1.982-1.221c-0.002,0.07-0.003,0.129,0.001,0.154c0.045,0.297,0.185,0.694,0.43,0.893
			c0.212,0.172,0.478,0.235,0.727,0.094c0.368-0.209,0.607-0.549,0.833-0.905c0.029,0.364,0.166,0.678,0.529,0.855
			c0.772,0.375,1.212-0.293,1.619-0.889c0.147,0.203,0.411,0.357,0.669,0.267c0.752-0.261,0.491-0.859,1.02-0.091
			c0.435,0.632,1.476,0.033,1.036-0.606c-0.314-0.456-0.236-1.012-0.837-1.157c-0.4-0.096-0.721,0.154-1.033,0.389
			c-0.01-0.044-0.029-0.085-0.038-0.129c-0.089-0.346-0.567-0.588-0.882-0.359c-0.523,0.382-0.61,0.739-0.89,1.27
			c-0.241,0.455,0.113-0.391,0.149-0.656c0.031-0.23,0.068-0.454,0.08-0.687c0.026-0.482-0.521-0.71-0.903-0.518
			c-0.574,0.289-0.871,0.854-1.197,1.36c0.101-0.447,0.201-0.937-0.003-1.207c-0.119-0.157-0.298-0.325-0.518-0.297
			c-0.87,0.11-1.569,1.474-2.232,2.015c0.085-0.953,0.692-2.051,1.04-2.783C23.673,41.22,22.639,40.611,22.307,41.308z"/>
	</g>
</g>
</svg>
